X:1
T:’Twill Not Be Long
T:’Twill Not Be Long
T:William Howard Doane
T:Frances Jane (Fanny) Crosby, 1869
T:Public Domain Courtesy of the Cyber Hymnal™
C:William Howard Doane
Z:Public Domain
Z:Courtesy of the Cyber Hymnal™
%%score ( 1 2 ) ( 3 4 )
L:1/8
Q:1/4=112
M:4/4
K:Eb
V:1 treble 
V:2 treble 
V:3 bass 
V:4 bass 
V:1
 (EF) | [EG]2 [EG]2 [EG]2 [FA]2 | [GB]3 [FA] [EG]2 ([DF][EG]) | [FA]2 [FA]2 [FA]2 [Ac]2 | %4
w: 1.~’Twill *|not be long, our|jour- ney here; Each *|brok- en sigh and|
w: 2.~’Twill *|not be long; the|yearn- ing heart May *|feel its ev- ery|
w: 3.~Though *|sad we mark the|clos- ing eye, Of *|those we loved in|
w: 4.~These *|check- ered wilds, with|thorns o’er- spread, Through *|which our way so|
 [Ac]3 [GB] [GB]2 ([EG][FA]) | [GB]2 [GB]2 [GB]2 [Be]2 | [Bd]3 [Ac] [Ac]2 [Ae]2 | %7
w: fall- ing tear Will *|soon be gone, and|all will be A|
w: hope de- part, And *|grief be min- gled|with its song; We’ll|
w: days gone by, Yet *|sweet in death their|lat- est song— We’ll|
w: oft is led— This *|march of time, with|truth so strong, Will|
 [Ge]2 [EG]2 (cB) (AF) |"^riten." E2 (GF) E2 ||"^Refrain" ([EG][FA]) | [GB]6 ([EG][FA]) | %11
w: cloud- less sky, * a *|wave- less * sea.|||
w: meet a- gain; * ’twill *|not be * long.|Roll *|on, dark *|
w: meet a- gain; * ’twill *|not be * long.|||
w: end in bliss; * ’twill *|not be * long.|||
 [GB]6 [GB]2 | ([Ge]2 [Ad]2) [Be]2 [Ac]2 | B6 [DA]2 | ([EG]2 [FB]2) [Ge]2 [EG]2 | %15
w: ||||
w: stream, We|dread * not thy|foam; The|pil- * grim is|
w: ||||
w: ||||
 (F2 A2) [Ec]2 [FA]2 | [EG]4 (G3 F) | E6 |] %18
w: |||
w: long- * ing for|home, sweet *|home.|
w: |||
w: |||
V:2
 EF | x8 | x8 | x8 | x8 | x8 | x8 | x4 D2 D2 | E2 D2 E2 || x2 | x8 | x8 | x8 | (F4 E2) x2 | x8 | %15
 E4 x4 | x4 D4 | E6 |] %18
V:3
 (G,A,) | [E,B,]2 [E,B,]2 [E,B,]2 [E,B,]2 | [E,E]3 [E,B,] [B,,E,B,]2 [B,,B,]2 | %3
w: ~ *|~ ~ ~ ~|~ ~ ~ ~|
 [B,,B,]2 [B,,B,]2 [B,,B,]2 [B,,D]2 | [E,E]3 [E,E] [E,E]2 [E,B,]2 | [E,E]2 [E,E]2 [E,E]2 [G,E]2 | %6
w: ~ ~ ~ ~|~ ~ ~ ~|~ ~ ~ ~|
 [A,E]3 [A,E] [A,E]2 [A,C]2 | B,2 B,2 [B,,A,]2 (F,A,) | [E,G,]2 [B,,A,]2 [E,G,]2 || [E,B,]2 | %10
w: ~ ~ ~ ~|~ ~ ~ ~ *|~ ~ ~|Roll|
 [E,B,]2 [E,B,]2 [E,B,]2 [E,B,]2 | [E,B,]2 [E,B,]2 [E,B,]2 [E,B,]2 | B,4 [G,B,]2 [A,E]2 | %13
w: on, roll on, dark|stream, roll on *||
 D4 [G,B,]2 [F,B,]2 | B,4 [C,G,]2 [B,,B,]2 | [A,,C]4 [A,,A,]2 [A,,C]2 | [B,,B,]4 (B,3 A,) | %17
w: ||||
 [E,G,]6 |] %18
w: |
V:4
 E,2 | x8 | x8 | x8 | x8 | x8 | x8 | B,2 B,2 B,,2 x2 | x6 || x2 | x8 | x8 | (E,2 F,2) x4 | %13
 B,2 A,2 x4 | (E,2 D,2) x4 | x8 | x4 B,,4 | x6 |] %18

